X: 172
T: Hugh Smith's Farewell (reel)
N: 080394
C: BB
M: 4/4
Q: 380
L: 1/8
R: reel
K: Ador
E | "Am"A3 B "C"c2 BA | "Em"GEEA GEEF | "G"GFGA B3 A | "G"G2 BG dGBG |
"Am"A3 B "C"c2 BA | "Em"edcB "Am7"AGEF | "G"GFGA "Em"Bdge | "G"dBGB "Am"A3 :|
e |"Am"a^gab "Am7"a=ged | "Am"eaag ea a2 | "G"gfga "Em"gedB | "G"G2 BG ABde |
"Am"a^gab "Am7"a=ged | "Am"eaag eaab | "G"g3 f "Em"efge | "G"dBGB "Am"A3 :|
%%%%%%%%%%%%%%%%%%%%%%%%%%%%%%%%%%%%%%%%%%%
